X: 256
T: The night dance
C: anon.
O: Ireland
B: Francis O'Neill: "The Dance Music of Ireland" (1907) no. 256
R: Double jig
Z: Transcribed by Frank Nordberg - http://www.musicaviva.com
F: http://www.musicaviva.com/abc/tunes/ireland/oneill-1001/oneill-1001-025
6.abc
M: 6/8
L: 1/8
K: C
c>AA B>GG|AGF EDC|c>AA B>GG|cGE DEG|c>de A>Bc|GAF E2D|C>CC C2E|GEC DEG:|
|:cde efg|gag gec|cde efg|afd dBG|cde g2g|a(f/g/a/f/) g2f|e>dc ced|cGE DE
G: |
|:ced ced|cGF EDC|ced ced|cGE DEG|cde A>Bc|GAF E2D|C>CC C2E|GEC DEG:|
W:
W:
W: From Musica Viva - http://www.musicaviva.com
W: the Internet center for free sheet music downloads.


